Simply-Cyan-Circles/scalable/devices/audio-headset.svg

<svg xmlns="http://www.w3.org/2000/svg" width="48" height="48" viewBox="0 0 12.7 12.7"><path d="M6.344.073a6.29 6.29 0 0 0-6.29 6.29 6.29 6.29 0 0 0 6.29 6.288 6.29 6.29 0 0 0 6.29-6.289 6.29 6.29 0 0 0-6.29-6.29zm-.018.936a5.407 5.407 0 0 1 5.407 5.407 5.407 5.407 0 0 1-5.407 5.407A5.407 5.407 0 0 1 .92 6.416 5.407 5.407 0 0 1 6.326 1.01zm-.258.672c-1.95 0-3.553 1.773-3.52 3.372a8.17 8.17 0 0 0 .25 1.895c.01.064.024.127.044.191l.253.793c.184.58.73.935 1.225.797.495-.138.745-.716.561-1.296l-.251-.792c-.18-.564-.702-.912-1.186-.803-.034-.423-.026-.71-.026-.71 0-1.4 1.185-2.545 2.65-2.545 1.467 0 2.655 1.133 2.65 2.581a8.352 8.352 0 0 1-.03.663c-.464-.061-.944.278-1.115.814l-.251.792c-.184.58.066 1.158.56 1.296.496.138 1.042-.217 1.226-.797l.002-.006.514.19-.01 1.03c-.004.313-.086.506-.19.62a.533.533 0 0 1-.425.172H7.272c0-.326-.26-.59-.585-.59h-.009a.587.587 0 0 0-.585.59.586.586 0 0 0 .585.59.295.295 0 0 0 .006 0h2.314c.323 0 .64-.12.862-.365.222-.245.339-.594.342-1.013l.015-1.445-.927-.34c.017-.052.034-.113.052-.17l.018-.055.002-.012c.138-.475.264-1.124.264-2.019 0-1.669-1.609-3.428-3.558-3.428z" fill="#5beedc"/></svg>

<?xml version="1.0" encoding="UTF-8" standalone="no"?>
<svg
   xmlns:dc="http://purl.org/dc/elements/1.1/"
   xmlns:cc="http://creativecommons.org/ns#"
   xmlns:rdf="http://www.w3.org/1999/02/22-rdf-syntax-ns#"
   xmlns:svg="http://www.w3.org/2000/svg"
   xmlns="http://www.w3.org/2000/svg"
   xmlns:sodipodi="http://sodipodi.sourceforge.net/DTD/sodipodi-0.dtd"
   xmlns:inkscape="http://www.inkscape.org/namespaces/inkscape"
   width="48"
   height="48"
   viewBox="0 0 12.7 12.7"
   version="1.1"
   id="svg4"
   sodipodi:docname="audio-headset.svg"
   inkscape:version="0.92.4 (5da689c313, 2019-01-14)">
  <metadata
     id="metadata10">
    <rdf:RDF>
      <cc:Work
         rdf:about="">
        <dc:format>image/svg+xml</dc:format>
        <dc:type
           rdf:resource="http://purl.org/dc/dcmitype/StillImage" />
        <dc:title></dc:title>
      </cc:Work>
    </rdf:RDF>
  </metadata>
  <defs
     id="defs8" />
  <sodipodi:namedview
     pagecolor="#ffffff"
     bordercolor="#666666"
     borderopacity="1"
     objecttolerance="10"
     gridtolerance="10"
     guidetolerance="10"
     inkscape:pageopacity="0"
     inkscape:pageshadow="2"
     inkscape:window-width="1087"
     inkscape:window-height="480"
     id="namedview6"
     showgrid="false"
     inkscape:zoom="4.9166667"
     inkscape:cx="2.1355932"
     inkscape:cy="24"
     inkscape:window-x="0"
     inkscape:window-y="25"
     inkscape:window-maximized="0"
     inkscape:current-layer="svg4" />
  <path
     d="m 6.344,0.073 a 6.29,6.29 0 0 0 -6.29,6.29 6.29,6.29 0 0 0 6.29,6.288 6.29,6.29 0 0 0 6.29,-6.289 6.29,6.29 0 0 0 -6.29,-6.29 z M 6.326,1.009 A 5.407,5.407 0 0 1 11.733,6.416 5.407,5.407 0 0 1 6.326,11.823 5.407,5.407 0 0 1 0.92,6.416 5.407,5.407 0 0 1 6.326,1.01 Z M 6.068,1.681 c -1.95,0 -3.553,1.773 -3.52,3.372 a 8.17,8.17 0 0 0 0.25,1.895 c 0.01,0.064 0.024,0.127 0.044,0.191 L 3.095,7.932 C 3.279,8.512 3.825,8.867 4.32,8.729 4.815,8.591 5.065,8.013 4.881,7.433 L 4.63,6.641 C 4.45,6.077 3.928,5.729 3.444,5.838 3.41,5.415 3.418,5.128 3.418,5.128 c 0,-1.4 1.185,-2.545 2.65,-2.545 1.467,0 2.655,1.133 2.65,2.581 A 8.352,8.352 0 0 1 8.688,5.827 C 8.224,5.766 7.744,6.105 7.573,6.641 L 7.322,7.433 C 7.138,8.013 7.388,8.591 7.882,8.729 8.378,8.867 8.924,8.512 9.108,7.932 L 9.11,7.926 9.624,8.116 9.614,9.146 C 9.61,9.459 9.528,9.652 9.424,9.766 A 0.533,0.533 0 0 1 8.999,9.938 H 7.272 c 0,-0.326 -0.26,-0.59 -0.585,-0.59 H 6.678 a 0.587,0.587 0 0 0 -0.585,0.59 0.586,0.586 0 0 0 0.585,0.59 0.295,0.295 0 0 0 0.006,0 h 2.314 c 0.323,0 0.64,-0.12 0.862,-0.365 0.222,-0.245 0.339,-0.594 0.342,-1.013 L 10.217,7.705 9.29,7.365 C 9.307,7.313 9.324,7.252 9.342,7.195 L 9.36,7.14 9.362,7.128 C 9.5,6.653 9.626,6.004 9.626,5.109 9.626,3.44 8.017,1.681 6.068,1.681 Z"
     id="path2"
     inkscape:connector-curvature="0"
     style="fill:#5beedc" />
</svg>
